papirus/32x32/apps/fbmessenger.svg

<?xml version="1.0" encoding="UTF-8" standalone="no"?>
<svg
   xmlns:dc="http://purl.org/dc/elements/1.1/"
   xmlns:cc="http://creativecommons.org/ns#"
   xmlns:rdf="http://www.w3.org/1999/02/22-rdf-syntax-ns#"
   xmlns:svg="http://www.w3.org/2000/svg"
   xmlns="http://www.w3.org/2000/svg"
   xmlns:sodipodi="http://sodipodi.sourceforge.net/DTD/sodipodi-0.dtd"
   xmlns:inkscape="http://www.inkscape.org/namespaces/inkscape"
   height="32"
   width="32"
   version="1.1"
   viewBox="0 0 32 32.000001"
   id="svg2"
   inkscape:version="0.91 r13725"
   sodipodi:docname="fbmessenger.svg">
  <metadata
     id="metadata51">
    <rdf:RDF>
      <cc:Work
         rdf:about="">
        <dc:format>image/svg+xml</dc:format>
        <dc:type
           rdf:resource="http://purl.org/dc/dcmitype/StillImage" />
        <dc:title></dc:title>
      </cc:Work>
    </rdf:RDF>
  </metadata>
  <sodipodi:namedview
     pagecolor="#ffffff"
     bordercolor="#666666"
     borderopacity="1"
     objecttolerance="10"
     gridtolerance="10"
     guidetolerance="10"
     inkscape:pageopacity="0"
     inkscape:pageshadow="2"
     inkscape:window-width="1600"
     inkscape:window-height="849"
     id="namedview49"
     showgrid="false"
     inkscape:zoom="7.54"
     inkscape:cx="11.561502"
     inkscape:cy="15.738581"
     inkscape:window-x="0"
     inkscape:window-y="30"
     inkscape:window-maximized="1"
     inkscape:current-layer="svg2">
    <inkscape:grid
       type="xygrid"
       id="grid4374" />
  </sodipodi:namedview>
  <defs
     id="defs4" />
  <path
     style="fill:#009eff;fill-opacity:1"
     d="M 16 2 A 14 13 0 0 0 2 15 A 14 13 0 0 0 7 24.957031 L 7 30 L 10.720703 27.033203 A 14 13 0 0 0 16 28 A 14 13 0 0 0 30 15 A 14 13 0 0 0 16 2 z "
     id="path37" />
  <path
     sodipodi:nodetypes="ccccccc"
     style="opacity:0.2;fill:#000000;fill-opacity:1"
     inkscape:connector-curvature="0"
     id="path4381"
     d="m 17,20 -4,-4.5 -7,4.5 8,-9 4,5 8,-5 z" />
  <path
     d="m 17,19 -4,-4.5 -7,4.5 8,-9 4,5 8,-5 z"
     id="path47"
     inkscape:connector-curvature="0"
     style="fill:#ffffff"
     sodipodi:nodetypes="ccccccc" />
  <path
     style="fill:#ffffff;fill-opacity:1;opacity:0.2"
     d="M 16 2 A 14 13 0 0 0 2 15 A 14 13 0 0 0 2.0214844 15.414062 A 14 13 0 0 1 16 3 A 14 13 0 0 1 29.978516 15.585938 A 14 13 0 0 0 30 15 A 14 13 0 0 0 16 2 z "
     id="path4383" />
  <path
     style="fill:#000000;fill-opacity:1;opacity:0.3"
     d="M 2.0214844 14.414062 A 14 13 0 0 0 2 15 A 14 13 0 0 0 7 24.957031 L 7 23.957031 A 14 13 0 0 1 2.0214844 14.414062 z M 29.978516 14.585938 A 14 13 0 0 1 16 27 A 14 13 0 0 1 10.720703 26.033203 L 7 29 L 7 30 L 10.720703 27.033203 A 14 13 0 0 0 16 28 A 14 13 0 0 0 30 15 A 14 13 0 0 0 29.978516 14.585938 z "
     id="path4388" />
</svg>

<?xml version="1.0" encoding="UTF-8" standalone="no"?>
<svg id="svg2" xmlns:rdf="http://www.w3.org/1999/02/22-rdf-syntax-ns#" xmlns="http://www.w3.org/2000/svg" viewBox="0 0 32 32.000001" width="32" version="1.1" xmlns:cc="http://creativecommons.org/ns#" height="32" xmlns:dc="http://purl.org/dc/elements/1.1/">
 <metadata id="metadata51">
  <rdf:RDF>
   <cc:Work rdf:about="">
    <dc:format>image/svg+xml</dc:format>
    <dc:type rdf:resource="http://purl.org/dc/dcmitype/StillImage"/>
    <dc:title/>
   </cc:Work>
  </rdf:RDF>
 </metadata>
 <path id="path37" fill="#009eff" d="m16 2a14 13 0 0 0 -14 13 14 13 0 0 0 5 9.957v5.043l3.721-2.967a14 13 0 0 0 5.279 0.967 14 13 0 0 0 14 -13 14 13 0 0 0 -14 -13z"/>
 <path id="path4381" opacity=".2" d="m17 20-4-4.5-7 4.5 8-9 4 5 8-5z"/>
 <path id="path47" fill="#fff" d="m17 19-4-4.5-7 4.5 8-9 4 5 8-5z"/>
 <path id="path4383" opacity=".2" d="m16 2a14 13 0 0 0 -14 13 14 13 0 0 0 0.0215 0.414 14 13 0 0 1 13.978 -12.414 14 13 0 0 1 13.979 12.586 14 13 0 0 0 0.021 -0.586 14 13 0 0 0 -14 -13z" fill="#fff"/>
 <path id="path4388" opacity=".2" d="m2.0215 15.414a14 13 0 0 0 -0.0215 0.586 14 13 0 0 0 5 9.957v-1a14 13 0 0 1 -4.9785 -9.543zm27.958 0.172a14 13 0 0 1 -13.979 12.414 14 13 0 0 1 -5.279 -0.967l-3.721 2.967v1l3.721-2.967a14 13 0 0 0 5.279 0.967 14 13 0 0 0 14 -13 14 13 0 0 0 -0.021 -0.414z"/>
</svg>
